src/assets/signals/trending_words.svg

<svg width="30" height="33" viewBox="0 0 30 33" fill="none" xmlns="http://www.w3.org/2000/svg">
<path fill-rule="evenodd" clip-rule="evenodd" d="M0.75 1.5C0.75 1.08579 1.08579 0.75 1.5 0.75H24.5C24.9142 0.75 25.25 1.08579 25.25 1.5V22.5C25.25 22.9142 24.9142 23.25 24.5 23.25C24.0858 23.25 23.75 22.9142 23.75 22.5V2.25H2.25V28.5C2.25 29.7428 3.25721 30.75 4.5 30.75C5.74279 30.75 6.75 29.7428 6.75 28.5V26.5C6.75 26.0858 7.08579 25.75 7.5 25.75H28.5C28.9142 25.75 29.25 26.0858 29.25 26.5V28.5C29.25 30.5712 27.5712 32.25 25.5 32.25H4.5C2.42879 32.25 0.75 30.5712 0.75 28.5V1.5ZM7.50036 30.75H25.5C26.7428 30.75 27.75 29.7428 27.75 28.5V27.25H8.25V28.5C8.25 29.3442 7.97108 30.1233 7.50036 30.75Z" fill="#181B2B"/>
<path d="M6.75 7.5C6.75 7.08579 7.08579 6.75 7.5 6.75H18.5C18.9142 6.75 19.25 7.08579 19.25 7.5C19.25 7.91421 18.9142 8.25 18.5 8.25H7.5C7.08579 8.25 6.75 7.91421 6.75 7.5Z" fill="#181B2B"/>
<path d="M6.75 13.5C6.75 13.0858 7.08579 12.75 7.5 12.75H18.5C18.9142 12.75 19.25 13.0858 19.25 13.5C19.25 13.9142 18.9142 14.25 18.5 14.25H7.5C7.08579 14.25 6.75 13.9142 6.75 13.5Z" fill="#181B2B"/>
<path d="M6.75 19.5C6.75 19.0858 7.08579 18.75 7.5 18.75H18.5C18.9142 18.75 19.25 19.0858 19.25 19.5C19.25 19.9142 18.9142 20.25 18.5 20.25H7.5C7.08579 20.25 6.75 19.9142 6.75 19.5Z" fill="#181B2B"/>
</svg>

<svg width="30" height="33" fill="none" xmlns="http://www.w3.org/2000/svg"><path fill-rule="evenodd" clip-rule="evenodd" d="M.75 1.5A.75.75 0 0 1 1.5.75h23a.75.75 0 0 1 .75.75v21a.75.75 0 0 1-1.5 0V2.25H2.25V28.5a2.25 2.25 0 1 0 4.5 0v-2a.75.75 0 0 1 .75-.75h21a.75.75 0 0 1 .75.75v2a3.75 3.75 0 0 1-3.75 3.75h-21A3.75 3.75 0 0 1 .75 28.5v-27zM7.5 30.75h18a2.25 2.25 0 0 0 2.25-2.25v-1.25H8.25v1.25c0 .844-.279 1.623-.75 2.25z" fill="#181B2B"/><path d="M6.75 7.5a.75.75 0 0 1 .75-.75h11a.75.75 0 0 1 0 1.5h-11a.75.75 0 0 1-.75-.75zM6.75 13.5a.75.75 0 0 1 .75-.75h11a.75.75 0 0 1 0 1.5h-11a.75.75 0 0 1-.75-.75zM6.75 19.5a.75.75 0 0 1 .75-.75h11a.75.75 0 0 1 0 1.5h-11a.75.75 0 0 1-.75-.75z" fill="#181B2B"/></svg>
